!!!COM: Music21
!!!OTL: Foliada en Cecebre
!!!OMV: pezas_foliadas_foliada-en-cecebre_foliada-en-cecebre-partitura.musicxml
**kern
*part1
*staff1
*I"Bagpipes
*I'Bag
*clefG^2
*
*k[b-]
*F:
*M2/4
=1
!LO:TX:a:t=Gaita en do
!LO:TX:a:t=ad libitum
*MM100
!LO:TX:a:t=[quarter]=100
8ccL
16ddL
16eeJJ
[4ff
.
=
2ff_
.
.
.
.
=
4.ff;]
.
.
8ee
=
8ddL
8ffJ
8eeL
8ddJ
=
8ccL
8eeJ
8ddL
8cccJ
=
8bb-L
8dddJ
[4ccc
.
=
2ccc_
.
=
2ccc_
.
.
.
.
.
!!linebreak:original
=
2ccc;]
!!linebreak:original
=||
!LO:TX:a:t=accelerando
*MM144
!LO:TX:a:t=[quarter]=144
8bb-L
8aaJ
8cccL
8bb-J
=
8aaL
8ggJ
8bb-L
8aaJ
=
8ggL
8ffJ
8aaL
8ggJ
=
8ffL
8eeJ
8ggL
8ffJ
=
8eeL
8ddJ
8ffL
8eeJ
=
8dd
[4.cc
.
=
8cc]
24ddLL
24ee
24ffJJ
[4gg
=
2gg_
.
.
=
2gg;]
=||
*M3/4
!LO:TX:a:t=Prestissimo
*MM220
!LO:TX:a:t=[quarter]=220
4.ccc
4.bb-
!!linebreak:original
=||
4aa
8aa^mL
8ggJ
4aa
=
4aa^
4bb-
4ggM
=
4ff
8gg^L
8ffJ
[4ee~
=
4ee]
8ee^L
8ffJ
8eeL
8ffJ
=
4gg
4aa
4bb-
=
4ccc
4.ddd
8ccc
=
4bb-
8cccL
8bb-J
[4aa
=
4aa]
4.aa^m
8gg
=
4ff
8ff^ML
8eeJ
4ff
=
4ff^
4gg
4aa
!!linebreak:original
=
4bb-
12cccL
12ddd
12cccJ
[4bb-
=
4bb-]
8ggL
8aaJ
8bb-L
8ggJ
=
12aaL
12bb-
12aaJ
4ff
4ff^
=
8aa^L
8ggJ
4ee
12ggL
12aa
12ggJ
=
[2.ff^
=
4ff]
4.ccc
8bb-
=
4aa
8aa^mL
8ggJ
4aa
=
4aa^
4bb-
4ggM
=
8ffL
8ggJ
8ffL
8ggJ
[4ee
!!linebreak:original
=
4ee]
8ee^L
8ffJ
8eeL
8ffJ
=
4gg
4aa
4bb-
=
4ccc
4.ddd
8ccc
=
8bb-L
8aaJ
8bb-L
8cccJ
[4aa
=
4aa]
4.aa^m
8gg
=
4ff
8ff^ML
8eeJ
4ff
=
4ff^
8ggL
8ffJ
8aaL
8ffJ
=
4bb-
12cccL
12ddd
12cccJ
[4bb-
=
4bb-]
8ggL
8aaJ
8bb-L
8ggJ
!!pagebreak:original
=
12aaL
12bb-
12aaJ
4ff
4ff^
=
8ggL
8aaJ
8bb-L
8ggJ
8eeL
8ggJ
=||
[2.ff^
=
4ff]
4aa-X
4ggm
=||
*k[b-e-a-d-]
*A-:
4ff
4gg
4aa-
=
4bb-
2gg
=
12ffL
12gg
12ffJ
4een
[4ff
=
4ff]
4ccc
4ccc~
=
4ddd-
4bb-
4ccc
=
4aa-
4bb-
4gg
!!pagebreak:original
=
4ff
8ggL
8ffJ
[4een
=
4ff-X]
4ffn
4gg
=||
4aa-M
4gg
4aa-
=
4bb-
2gg
=
4aa-
12ggL
12aa-
12ggJ
[4ff
=
4ff]
4ccc
4ccc~
=
4ddd-
4ccc
4bb-
=
4gg
4.aa-
8gg
=
[2.ff
=
4ff]
4ff^
4gg
!!linebreak:original
=||
4aa-M
4gg
4aa-
=
4bb-
2gg
=
4aa-
12ggL
12aa-
12ggJ
[4ff
=
4ff]
4ccc
4ccc~
=
4ddd-
4ccc
4bb-
=
4gg
4.cc
8een
!!linebreak:original
=||
*k[b-]
*F:
[2.ff~
=
4ff]
4.ccc
8bb-
==
2ff~
12ccL
12dd
12eeJ
=
4ff
2r
==
*-
!!!system-decoration: s1,s2
